assets/icons/external-link.svg

<svg class="ucla-icon external-link" width="24" height="24" viewBox="0 0 24 24" aria-labelledby="icon-external-link" role="img"><title id="icon-external-link">Icon External Link</title><g fill="none" fill-rule="evenodd"><path d="M15.5 15.5V19H5V8.5h3.5V5H19v10.5h-3.5zm-1.75 0H8.5v-5.25H6.75v7h7V15.5zm-3.5-8.75v7h7v-7h-7z" id="Combined-Shape" fill="#000"/></g></svg>

<?xml version="1.0" encoding="UTF-8"?>
<svg width="24px" height="24px" viewBox="0 0 24 24" version="1.1" xmlns="http://www.w3.org/2000/svg" xmlns:xlink="http://www.w3.org/1999/xlink">
    <!-- Generator: Sketch 53.2 (72643) - https://sketchapp.com -->
    <title>Icon/External Link</title>
    <desc>Created with Sketch.</desc>
    <g id="Icon/External-Link" stroke="none" stroke-width="1" fill="none" fill-rule="evenodd">
        <path d="M15.5,15.5 L15.5,19 L5,19 L5,8.5 L8.5,8.5 L8.5,5 L19,5 L19,15.5 L15.5,15.5 Z M13.75,15.5 L8.5,15.5 L8.5,10.25 L6.75,10.25 L6.75,17.25 L13.75,17.25 L13.75,15.5 Z M10.25,6.75 L10.25,13.75 L17.25,13.75 L17.25,6.75 L10.25,6.75 Z" id="Combined-Shape" fill="#000000"></path>
    </g>
</svg>
